www/assets/icons/settings_ethernet.svg

<svg width="24" height="24" viewBox="0 0 24 24" xmlns="http://www.w3.org/2000/svg" fill='currentColor'><path d="M7.77001 6.75998L6.23001 5.47998L0.820007 12L6.23001 18.52L7.77001 17.24L3.42001 12L7.77001 6.75998ZM7.00001 13H9.00001V11H7.00001V13ZM17 11H15V13H17V11ZM11 13H13V11H11V13ZM17.77 5.47998L16.23 6.75998L20.58 12L16.23 17.24L17.77 18.52L23.18 12L17.77 5.47998Z"/></svg>

<svg xmlns="http://www.w3.org/2000/svg" width="24" height="24" viewBox="0 0 24 24" fill='currentColor'><path d="M7.77 6.76 6.23 5.48.82 12l5.41 6.52 1.54-1.28L3.42 12zM7 13h2v-2H7zm10-2h-2v2h2zm-6 2h2v-2h-2zm6.77-7.52-1.54 1.28L20.58 12l-4.35 5.24 1.54 1.28L23.18 12z"/></svg>
